X: 2
T: Vieni sul mar  [G]
O: trad Italy
R: waltz
Z: 2004 John Chambers <jc@trillian.mit.edu>
S: Enrico Caruso recording
M: 3/4
L: 1/4
K: G
%%indent 200
FG "I"|\
"C"AE2 | "(d7)"zGA | "G"BB2 | zBc |\
"D7"ed^c | dAB | "G"Gz"D7"d | "G"g |]
GA "V"|\
"G"Bed | "D7"BGA | "G"BG2 | zGA |\
Bcd | "C"efe | "D7"A3 | zGA |\
"G"Bed | "D7"BGA | "G"BG2 | zGA |\
"Em"Bed | "D7"AcB | "G"G3 | zGA |
"Em"Bef | gfe | "B7"e^d2 | z^dd |\
"Em"eef | "Am"ga=b | "B7"=b3 | z"(d7)"BA |\
"G"GBd | ggf | "C"fe2 | zBc |\
"D7"ded | cBA | "G"G3 | z3 |]
"Ch"\
|: "G"B3  | "D7"AGA | "G"G3- |\
G3 | "C"g3 | ece | "G"d3- |\
d3 | "C"geg | "B#m"fdf | "Am"ece |\
"G"d3 | "G"B3  | "D7"AGA | "G"G3 | z :|
